X:1
T:Title
%%score { 1 | 2 }
L:1/8
Q:1/4=81
M:6/8
K:Ab
V:1 treble nm="Grand Piano"
V:2 bass 
V:1
 [CE][CF][CG] [CA][CG][CF] | GFE G E2 | BBB BBB | [EB][Ec][Ed] [Ec]3 | [Ee][Ee][Ee] [Ec][EB][_GA] | %5
w: Benjamin~F.~Butts * * * * *|||||
 [Fd][Fd][Fd] [Fd] [DF]2 | [CE][CA][CA] [EA][DG][CA] | BFG [CA]3 | [CE][CF][CG] [CA][CG][CF] | %9
w: ||||
 [DG][DF][DE] GFE | AAA AAA | [=DA][DF][DA] B3 | ccc AA[_GA] | %13
w: ||||
[M:13/16] [FB][FB][FB][Fd][Fd][Fd]3/2 |[M:3/4] [Ec][EB] [A,EA][CE] [CEA][B,FA] | %15
w: ||
 [CEA][B,EG] [DEB] [CEA]3 |] %16
w: |
V:2
 [A,,E,][A,,E,][A,,E,] [A,,E,][A,,E,][A,,A,] | [E,B,D][E,A,D][E,G,D] [E,B,D] [E,G,D]2 | %2
 [E,G,E][E,G,E][E,G,E] [E,_G,E][E,G,E][E,G,E] | [D,G,][C,A,][B,,G,] [A,,A,]3 | %4
 [A,C][A,C][A,C] [A,,A,][B,,G,][C,A,] | [D,A,][D,A,][D,A,] [D,A,] [D,A,]2 | %6
 [A,,A,][A,,E,][A,,E,] [C,A,][B,,E,][A,,E,] | [D,F,D][D,B,D][D,B,D] [A,,A,]3 | %8
 [A,,A,][A,,E,][A,,E,] [A,,E,][A,,E,][A,,E,] | [B,,E,][B,,F,][B,,G,] [E,B,D][F,A,D][G,B,D] | %10
 [A,C][A,C][A,C] [F,CF][F,CF][F,CE] | [B,,B,][B,,B,][B,,A,] [E,G,E]3 | %12
 [A,E][A,E][G,B,=E] [F,CF][F,CF][E,C] |[M:13/16] [D,D][D,D][D,B,][B,,B,][B,,B,][B,,B,]3/2 | %14
[M:3/4] [E,C][D,G,] C,A,, C,D, | E,E, E, A,,3 |] %16

